X: 41670
T: Upperchurch, The
R: polka
M: 2/4
K: Amajor
|:AE AB|c2 c d/B/|AE AB|c2 c>e|
fe cA|B2 B c/e/|fe cB|1 A2 AB:|2 A2 ce||
|:a2 af|g2 ge|f=f/^f/ af|e2 cB/A/|
fe cA|B2 B c/d//e//|fe cB|1 A2 cd/e/:|2 A2 Ac/B/||

